z-union/img/icons/list-point-orange.svg

<svg width="13" height="13" viewBox="0 0 13 13" fill="none" xmlns="http://www.w3.org/2000/svg">
<path d="M6.50852 13C6.42181 13 6.35244 13 6.26572 13C2.67574 12.8612 -0.133818 9.84239 0.00492544 6.26839C0.0742971 4.53344 0.802698 2.91994 2.06873 1.74017C3.33476 0.560406 5.05172 -0.0641757 6.73398 0.00522233C8.46828 0.0746203 10.0812 0.803297 11.2605 2.06981C12.4398 3.33632 13.0642 5.00188 12.9948 6.73683C12.8907 10.2414 9.99445 13 6.50852 13ZM6.38712 9.82504C8.20813 9.91179 9.76899 8.45443 9.83836 6.61538C9.87305 5.73056 9.56088 4.88043 8.95387 4.22115C8.34687 3.56187 7.53175 3.19753 6.64726 3.16283C5.72809 3.12813 4.91297 3.44042 4.25394 4.04766C3.61226 4.65489 3.23071 5.47032 3.19602 6.35514C3.12665 8.21154 4.56612 9.75564 6.38712 9.82504Z" fill="#EAAC36"/>
</svg>

<svg width="13" height="13" fill="none" xmlns="http://www.w3.org/2000/svg"><path d="M6.509 13h-.243c-3.59-.139-6.4-3.158-6.261-6.732A6.505 6.505 0 012.069 1.74 6.522 6.522 0 016.734.005a6.5 6.5 0 014.527 2.065 6.446 6.446 0 011.734 4.667C12.89 10.24 9.995 13 6.509 13zm-.122-3.175c1.821.087 3.382-1.37 3.451-3.21a3.32 3.32 0 00-.884-2.394 3.27 3.27 0 00-2.307-1.058 3.265 3.265 0 00-2.393.885 3.343 3.343 0 00-1.058 2.307c-.07 1.857 1.37 3.4 3.191 3.47z" fill="#EAAC36"/></svg>
